apps/32/akonaditray.svg

<?xml version="1.0" encoding="UTF-8" standalone="no"?>
<!-- Created with Inkscape (http://www.inkscape.org/) -->

<svg
   width="32"
   height="32"
   version="1.1"
   viewBox="0 0 32 32"
   id="svg22"
   xmlns:xlink="http://www.w3.org/1999/xlink"
   xmlns="http://www.w3.org/2000/svg"
   xmlns:svg="http://www.w3.org/2000/svg">
  <defs
     id="defs12">
    <linearGradient
       id="linearGradient917">
      <stop
         style="stop-color:#134a83;stop-opacity:1;"
         offset="0"
         id="stop913" />
      <stop
         style="stop-color:#bdd7f0;stop-opacity:1;"
         offset="1"
         id="stop915" />
    </linearGradient>
    <linearGradient
       xlink:href="#linearGradient3487"
       id="linearGradient3403"
       gradientUnits="userSpaceOnUse"
       x1="6.9491749"
       y1="4.5549412"
       x2="11.215498"
       y2="59.052471" />
    <linearGradient
       id="linearGradient3487">
      <stop
         style="stop-color:#32373c;stop-opacity:1"
         offset="0"
         id="stop3481" />
      <stop
         id="stop3483"
         offset="0.36804965"
         style="stop-color:#1a1a1a;stop-opacity:1" />
      <stop
         style="stop-color:#31363b;stop-opacity:1"
         offset="1"
         id="stop3485" />
    </linearGradient>
    <linearGradient
       xlink:href="#linearGradient20604"
       id="linearGradient20558"
       gradientUnits="userSpaceOnUse"
       x1="25.802212"
       y1="20.373846"
       x2="25.111048"
       y2="58.912758" />
    <linearGradient
       id="linearGradient20604">
      <stop
         id="stop20598"
         offset="0"
         style="stop-color:#3d3d3d;stop-opacity:1" />
      <stop
         style="stop-color:#000000;stop-opacity:1"
         offset="0.61772454"
         id="stop20600" />
      <stop
         id="stop20602"
         offset="1"
         style="stop-color:#3d3d3d;stop-opacity:1" />
    </linearGradient>
    <filter
       style="color-interpolation-filters:sRGB"
       id="filter20720"
       x="-0.017024755"
       y="-0.016457183"
       width="1.0340491"
       height="1.0329144">
      <feGaussianBlur
         stdDeviation="0.14745661"
         id="feGaussianBlur20722" />
    </filter>
    <linearGradient
       gradientTransform="translate(0.36067797,-0.13016949)"
       xlink:href="#linearGradient4555"
       id="linearGradient4557"
       x1="43.499737"
       y1="64.011795"
       x2="44.141731"
       y2="0.30621234"
       gradientUnits="userSpaceOnUse" />
    <linearGradient
       id="linearGradient4555">
      <stop
         style="stop-color:#141618;stop-opacity:1"
         offset="0"
         id="stop4551" />
      <stop
         id="stop4559"
         offset="0.51820582"
         style="stop-color:#686868;stop-opacity:1" />
      <stop
         style="stop-color:#31363b;stop-opacity:1"
         offset="1"
         id="stop4553" />
    </linearGradient>
    <filter
       style="color-interpolation-filters:sRGB"
       id="filter4601"
       x="-0.030244762"
       width="1.0604895"
       y="-0.030100647"
       height="1.0602013">
      <feGaussianBlur
         stdDeviation="0.014790289"
         id="feGaussianBlur4603" />
    </filter>
    <linearGradient
       xlink:href="#linearGradient917"
       id="linearGradient919"
       x1="28.334555"
       y1="32.137646"
       x2="33.063145"
       y2="7.1074457"
       gradientUnits="userSpaceOnUse" />
  </defs>
  <g
     id="g4"
     transform="scale(0.66499999)">
    <rect
       style="display:inline;fill:url(#linearGradient919);fill-opacity:1;fill-rule:evenodd;stroke:none;stroke-width:0.92782;stroke-linejoin:round;stroke-miterlimit:7.8"
       id="rect1192"
       width="42.084602"
       height="42.712109"
       x="3.1629105"
       y="3.0184898"
       ry="0" />
    <g
       id="g5"
       transform="matrix(0.943859,0,0,0.943859,5.4464442,0.52734303)">
      <path
         fill="#cddff0"
         d="M 41,24 A 17,17 0 0 1 24,41 17,17 0 0 1 7,24 17,17 0 0 1 24,7 17,17 0 0 1 41,24 Z"
         id="path1"
         style="fill:#bdd7f0;fill-opacity:1" />
      <path
         fill="#ffffff"
         opacity="0.2"
         d="M 24,7 A 17,17 0 0 0 7,24 17,17 0 0 0 7.0215,24.58 17,17 0 0 1 23.9995,8 a 17,17 0 0 1 16.979,16.42 17,17 0 0 0 0.021,-0.42 17,17 0 0 0 -17,-17 z"
         id="path2" />
      <path
         fill="#62b4e7"
         d="M 34.503,39.451 C 25.416,44.698 13.795,41.584 8.549,32.497 3.302,23.409 6.4156,11.789 15.503,6.542 c 10.708,-0.04918 17.507,23.089 19,32.909 z"
         id="path3"
         style="fill:#42a8e7;fill-opacity:1" />
      <path
         fill="#357dc5"
         d="M 43,24.34861 C 43,34.649085 34.493,43 24,43 13.507,43 5,34.649085 5,24.34861 c 5.3113,-9.127304 28.749,-3.550342 38,0 z"
         id="path4"
         style="fill:#134a83;fill-opacity:1;stroke-width:0.990784" />
      <path
         opacity="0.2"
         d="M 5.0469,24.93 C 5.0325,24.954 5.0141,24.975 5,25 5,35.493 13.507,44 24,44 34.493,44 43,35.493 43,25 42.985,24.994 42.966,24.988 42.951,24.982 42.437,35.016 34.162,43 24,43 13.82,43 5.535,34.988 5.047,24.93 Z"
         id="path5" />
    </g>
    <path
       style="display:inline;mix-blend-mode:normal;fill:url(#linearGradient3403);fill-opacity:1;stroke:url(#linearGradient20558);stroke-width:1.16242;stroke-linecap:butt;stroke-linejoin:round;stroke-miterlimit:4;stroke-dasharray:none;stroke-opacity:1;filter:url(#filter20720)"
       d="M 4.7043071,3.9814882 4.6913695,60.80196 H 58.59546 l 1.022155,-2.866369 c 0,0 -23.87537,0.766388 -32.844441,-4.140386 C 16.257548,48.042344 11.401114,4.0978197 11.401114,4.0978197 Z"
       id="path1686"
       transform="matrix(0.7518797,0,0,0.7518797,0.09970467,0.02488636)" />
    <rect
       style="display:inline;fill:none;fill-opacity:1;stroke:url(#linearGradient4557);stroke-width:3.71366;stroke-linejoin:round;stroke-miterlimit:7.8;stroke-dasharray:none;stroke-opacity:0.995146;filter:url(#filter4601)"
       id="rect4539"
       width="62.567089"
       height="62.866646"
       x="1.0323594"
       y="0.59551275"
       ry="6.2447233"
       rx="5.8029528"
       transform="matrix(0.70434793,0,0,0.70291231,1.3629847,1.5442064)" />
  </g>
</svg>

<svg width="32" height="32" version="1.1" viewBox="0 0 32 32" xmlns="http://www.w3.org/2000/svg" xmlns:xlink="http://www.w3.org/1999/xlink">
<defs>
<linearGradient id="linearGradient3403" x1="6.9492" x2="11.215" y1="4.5549" y2="59.052" gradientUnits="userSpaceOnUse">
<stop style="stop-color:#32373c" offset="0"/>
<stop style="stop-color:#1a1a1a" offset=".36805"/>
<stop style="stop-color:#31363b" offset="1"/>
</linearGradient>
<linearGradient id="linearGradient20558" x1="25.802" x2="25.111" y1="20.374" y2="58.913" gradientUnits="userSpaceOnUse">
<stop style="stop-color:#3d3d3d" offset="0"/>
<stop offset=".61772"/>
<stop style="stop-color:#3d3d3d" offset="1"/>
</linearGradient>
<linearGradient id="linearGradient4557" x1="43.5" x2="44.142" y1="64.012" y2=".30621" gradientTransform="translate(.36068 -.13017)" gradientUnits="userSpaceOnUse">
<stop style="stop-color:#141618" offset="0"/>
<stop style="stop-color:#686868" offset=".51821"/>
<stop style="stop-color:#31363b" offset="1"/>
</linearGradient>
<linearGradient id="linearGradient919" x1="28.335" x2="33.063" y1="32.138" y2="7.1074" gradientUnits="userSpaceOnUse">
<stop style="stop-color:#134a83" offset="0"/>
<stop style="stop-color:#bdd7f0" offset="1"/>
</linearGradient>
</defs>
<g transform="scale(.665)">
<rect x="3.1629" y="3.0185" width="42.085" height="42.712" ry="0" style="fill-rule:evenodd;fill:url(#linearGradient919)"/>
<g transform="matrix(.94386 0 0 .94386 5.4464 .52734)">
<path d="m41 24a17 17 0 0 1-17 17 17 17 0 0 1-17-17 17 17 0 0 1 17-17 17 17 0 0 1 17 17z" fill="#cddff0" style="fill:#bdd7f0"/>
<path d="m24 7a17 17 0 0 0-17 17 17 17 0 0 0 0.0215 0.58 17 17 0 0 1 16.978-16.58 17 17 0 0 1 16.979 16.42 17 17 0 0 0 0.021-0.42 17 17 0 0 0-17-17z" fill="#fff" opacity=".2"/>
<path d="m34.503 39.451c-9.087 5.247-20.708 2.133-25.954-6.954-5.247-9.088-2.1334-20.708 6.954-25.955 10.708-0.04918 17.507 23.089 19 32.909z" fill="#62b4e7" style="fill:#42a8e7"/>
<path d="m43 24.349c0 10.3-8.507 18.651-19 18.651s-19-8.3509-19-18.651c5.3113-9.1273 28.749-3.5503 38 0z" fill="#357dc5" style="fill:#134a83;stroke-width:.99078"/>
<path d="m5.0469 24.93c-0.0144 0.024-0.0328 0.045-0.0469 0.07 0 10.493 8.507 19 19 19s19-8.507 19-19c-0.015-6e-3 -0.034-0.012-0.049-0.018-0.514 10.034-8.789 18.018-18.951 18.018-10.18 0-18.465-8.012-18.953-18.07z" opacity=".2"/>
</g>
<path transform="matrix(.75188 0 0 .75188 .099705 .024886)" d="m4.7043 3.9815-0.012938 56.82h53.904l1.0222-2.8664s-23.875 0.76639-32.844-4.1404c-10.516-5.7529-15.372-49.697-15.372-49.697z" style="fill:url(#linearGradient3403);mix-blend-mode:normal;stroke-linejoin:round;stroke-width:1.1624;stroke:url(#linearGradient20558)"/>
<rect transform="matrix(.70435 0 0 .70291 1.363 1.5442)" x="1.0324" y=".59551" width="62.567" height="62.867" rx="5.803" ry="6.2447" style="fill:none;stroke-linejoin:round;stroke-miterlimit:7.8;stroke-opacity:.99515;stroke-width:3.7137;stroke:url(#linearGradient4557)"/>
</g>
</svg>
